epam-assets/icon-sources/18/editor-format_text_alignment_center.svg

<svg xmlns="http://www.w3.org/2000/svg" width="18" height="18" fill="none" viewBox="0 0 18 18">
  <path fill="#6C6F80" fill-rule="evenodd" d="M2.25 2.25h13.5v1.5H2.25v-1.5Zm3 3h7.5v1.5h-7.5v-1.5Zm-3 3h13.5v1.5H2.25v-1.5Zm3 3h7.5v1.5h-7.5v-1.5Zm-3 3h13.5v1.5H2.25v-1.5Z" clip-rule="evenodd"/>
</svg>

<svg width="18" height="18" viewBox="0 0 18 18" fill="none" xmlns="http://www.w3.org/2000/svg">
<g id="18/editor-format_text_alignment_center">
<path id="icon" fill-rule="evenodd" clip-rule="evenodd" d="M2.25 2.25H15.75V3.75H2.25V2.25ZM5.25 5.25H12.75V6.75H5.25V5.25ZM2.25 8.25H15.75V9.75H2.25V8.25ZM5.25 11.25H12.75V12.75H5.25V11.25ZM2.25 14.25H15.75V15.75H2.25V14.25Z" fill="#6C6F80"/>
</g>
</svg>
